icons/caret-double-topleftB.svg

<svg width="24" height="24" viewBox="0 0 24 24" fill="none" xmlns="http://www.w3.org/2000/svg">
<path d="M17.6456 11.8802H12.1456C12.0456 11.8802 11.9456 11.9802 11.9456 12.0802V17.5802C11.9456 17.7802 12.2456 17.8802 12.3456 17.7802L17.7456 12.3802C17.9456 12.1802 17.8456 11.8802 17.6456 11.8802Z" fill="black"/>
<path fill-rule="evenodd" clip-rule="evenodd" d="M11.4777 11.4124C11.6205 11.2697 11.8516 11.1302 12.1456 11.1302H17.6456C18.1801 11.1302 18.4888 11.536 18.5732 11.8733C18.6623 12.2298 18.5616 12.6249 18.2759 12.9106L12.8759 18.3106C12.6728 18.5136 12.4266 18.5629 12.2686 18.5688C12.1022 18.575 11.9453 18.539 11.8126 18.4821C11.5771 18.3812 11.1956 18.0983 11.1956 17.5802V12.0802C11.1956 11.7863 11.335 11.5552 11.4777 11.4124ZM12.6956 12.6302V16.3696L16.4349 12.6302H12.6956Z" fill="black"/>
<path d="M11.8455 6.1803H6.34551C6.24551 6.1803 6.14551 6.2803 6.14551 6.3803V11.8803C6.14551 12.0803 6.44551 12.1803 6.54551 12.0803L12.0455 6.5803C12.1455 6.3803 12.0455 6.1803 11.8455 6.1803Z" fill="black"/>
<path fill-rule="evenodd" clip-rule="evenodd" d="M5.67768 5.71247C5.82044 5.56971 6.05158 5.4303 6.34551 5.4303H11.8455C12.2216 5.4303 12.5607 5.6337 12.7288 5.96989C12.888 6.28824 12.8547 6.63899 12.7163 6.91571L12.6619 7.02457L7.07584 12.6106C6.87278 12.8137 6.62653 12.863 6.46858 12.8688C6.30217 12.875 6.14522 12.839 6.01257 12.7822C5.77706 12.6812 5.39551 12.3983 5.39551 11.8803V6.3803C5.39551 6.08637 5.53492 5.85523 5.67768 5.71247ZM6.89551 6.9303V10.6696L10.6348 6.9303H6.89551Z" fill="black"/>
</svg>

<svg xmlns="http://www.w3.org/2000/svg" fill="none" viewBox="0 0 24 24">
  <path fill="#000" d="M17.646 11.88h-5.5c-.1 0-.2.1-.2.2v5.5c0 .2.3.3.4.2l5.4-5.4c.2-.2.1-.5-.1-.5Z"/>
  <path fill="#000" fill-rule="evenodd" d="M11.478 11.412a.95.95 0 0 1 .668-.282h5.5c.534 0 .843.406.927.743a1.09 1.09 0 0 1-.297 1.038l-5.4 5.4a.902.902 0 0 1-.607.258 1.063 1.063 0 0 1-.456-.087c-.236-.1-.617-.384-.617-.902v-5.5a.95.95 0 0 1 .282-.668Zm1.218 1.218v3.74l3.739-3.74h-3.74Z" clip-rule="evenodd"/>
  <path fill="#000" d="M11.845 6.18h-5.5c-.1 0-.2.1-.2.2v5.5c0 .2.3.3.4.2l5.5-5.5c.1-.2 0-.4-.2-.4Z"/>
  <path fill="#000" fill-rule="evenodd" d="M5.678 5.712a.95.95 0 0 1 .668-.282h5.5c.376 0 .715.204.883.54.159.318.126.669-.013.946l-.054.109-5.586 5.586a.901.901 0 0 1-.607.258 1.065 1.065 0 0 1-.456-.087c-.236-.1-.617-.384-.617-.902v-5.5a.95.95 0 0 1 .282-.668ZM6.896 6.93v3.74l3.739-3.74h-3.74Z" clip-rule="evenodd"/>
</svg>
